;FLAVOR:Marlin
;TIME:23739
;Filament used: 16.7109m
;Layer height: 0.2
;MINX:39
;MINY:54
;MINZ:0.2
;MAXX:181
;MAXY:166
;MAXZ:29
;Generated with Cura_SteamEngine 5.2.1
M82 ;absolute extrusion mode
; Ender 3 Custom Start G-code
G92 E0 ; Reset Extruder
G28 ; Home all axes
M104 S175 ; Start heating up the nozzle most of the way
M190 S60 ; Start heating the bed, wait until target temperature reached
M109 S210.0 ; Finish heating the nozzle
G1 Z2.0 F3000 ; Move Z Axis up little to prevent scratching of Heat Bed
G1 X0.1 Y20 Z0.3 F5000.0 ; Move to start position
G1 X0.1 Y200.0 Z0.3 F1500.0 E15 ; Draw the first line
G1 X0.4 Y200.0 Z0.3 F5000.0 ; Move to side a little
G1 X0.4 Y20 Z0.3 F1500.0 E30 ; Draw the second line
G92 E0 ; Reset Extruder
G1 Z2.0 F3000 ; Move Z Axis up little to prevent scratching of Heat Bed
G1 X5 Y20 Z0.3 F5000.0 ; Move over to prevent blob squish
G92 E0
G92 E0
G1 F1500 E-6.5
;LAYER_COUNT:145
;LAYER:0
M107
G0 F6000 X43.626 Y56.051 Z0.2
;TYPE:SKIRT
G1 F1500 E0
G1 F1200 X44.412 Y55.539 E0.0312
G1 X45.239 Y55.097 E0.06239
G1 X46.101 Y54.727 E0.09359
G1 X46.991 Y54.431 E0.12478
G1 X47.903 Y54.213 E0.15597
G1 X48.83 Y54.072 E0.18716
G1 X49.701 Y54.013 E0.21619
G1 X50.33 Y54 E0.23712
G1 X169.451 Y54.001 E4.1991
G1 X170.149 Y54.011 E4.22232
G1 X171.085 Y54.065 E4.2535
G1 X172.013 Y54.197 E4.28468
G1 X172.927 Y54.409 E4.31588
G1 X173.819 Y54.698 E4.34707
G1 X174.684 Y55.061 E4.37827
G1 X175.514 Y55.497 E4.40945
G1 X176.305 Y56.002 E4.44067
G1 X177.049 Y56.573 E4.47186
G1 X177.742 Y57.205 E4.50306
G1 X178.379 Y57.893 E4.53424
G1 X178.954 Y58.634 E4.56544
G1 X179.465 Y59.42 E4.59662
G1 X179.907 Y60.248 E4.62783
G1 X180.276 Y61.11 E4.65902
G1 X180.571 Y62 E4.69021
G1 X180.789 Y62.912 E4.72139
G1 X180.929 Y63.84 E4.75261
G1 X180.987 Y64.701 E4.78131
G1 X181 Y65.33 E4.80224
G1 X180.999 Y154.4 E7.76472
G1 X180.99 Y155.127 E7.7889
G1 X180.939 Y156.064 E7.82011
G1 X180.807 Y156.992 E7.85129
G1 X180.598 Y157.906 E7.88247
G1 X180.311 Y158.799 E7.91367
G1 X179.949 Y159.665 E7.94489
G1 X179.515 Y160.496 E7.97607
G1 X179.011 Y161.287 E8.00726
G1 X178.442 Y162.032 E8.03844
G1 X177.811 Y162.727 E8.06966
G1 X177.124 Y163.365 E8.10085
G1 X176.385 Y163.942 E8.13203
G1 X175.599 Y164.454 E8.16323
G1 X174.773 Y164.897 E8.19441
G1 X173.911 Y165.269 E8.22563
G1 X173.022 Y165.565 E8.2568
G1 X172.11 Y165.785 E8.288
G1 X171.183 Y165.926 E8.31919
G1 X170.299 Y165.987 E8.34866
G1 X169.67 Y166 E8.36958
G1 X50.565 Y165.999 E12.33103
G1 X49.867 Y165.99 E12.35425
G1 X48.931 Y165.938 E12.38543
G1 X48.002 Y165.806 E12.41664
G1 X47.088 Y165.596 E12.44783
G1 X46.195 Y165.309 E12.47903
G1 X45.33 Y164.946 E12.51023
G1 X44.499 Y164.512 E12.54141
G1 X43.708 Y164.008 E12.5726
G1 X42.963 Y163.438 E12.6038
G1 X42.269 Y162.807 E12.635
G1 X41.632 Y162.12 E12.66616
G1 X41.055 Y161.38 E12.69737
G1 X40.543 Y160.594 E12.72857
G1 X40.1 Y159.767 E12.75978
G1 X39.729 Y158.906 E12.79096
G1 X39.433 Y158.016 E12.82215
G1 X39.214 Y157.104 E12.85335
G1 X39.073 Y156.177 E12.88454
G1 X39.013 Y155.288 E12.91417
G1 X39 Y154.658 E12.93513
G1 X39.001 Y65.525 E15.89971
G1 X39.01 Y64.86 E15.92183
G1 X39.063 Y63.924 E15.95301
G1 X39.195 Y62.995 E15.98422
G1 X39.406 Y62.081 E16.01541
G1 X39.694 Y61.189 E16.04659
G1 X40.057 Y60.324 E16.07779
G1 X40.492 Y59.493 E16.10899
G1 X40.996 Y58.703 E16.14016
G1 X41.566 Y57.958 E16.17136
G1 X42.198 Y57.264 E16.20257
G1 X42.886 Y56.627 E16.23376
G1 X43.626 Y56.051 E16.26495
G0 F6000 X44.01 Y56.27
G1 F1200 X44.791 Y55.782 E16.29558
G1 X45.611 Y55.364 E16.32619
G1 X46.465 Y55.019 E16.35683
G1 X47.345 Y54.749 E16.38744
G1 X48.245 Y54.557 E16.41805
G1 X49.159 Y54.443 E16.44869
G1 X49.712 Y54.413 E16.46711
G1 X50.33 Y54.4 E16.48766
G1 X169.445 Y54.401 E20.44945
G1 X170.143 Y54.411 E20.47266
G1 X171.062 Y54.464 E20.50328
G1 X171.973 Y54.597 E20.5339
G1 X172.869 Y54.808 E20.56452
G1 X173.743 Y55.096 E20.59512
G1 X174.59 Y55.459 E20.62577
G1 X175.401 Y55.894 E20.65638
G1 X176.171 Y56.398 E20.68699
G1 X176.895 Y56.967 E20.71762
G1 X177.567 Y57.597 E20.74826
G1 X178.182 Y58.282 E20.77887
G1 X178.735 Y59.018 E20.80949
G1 X179.222 Y59.799 E20.84011
G1 X179.639 Y60.62 E20.87073
G1 X179.984 Y61.474 E20.90137
G1 X180.253 Y62.354 E20.93197
G1 X180.445 Y63.255 E20.96261
G1 X180.558 Y64.168 E20.99321
G1 X180.587 Y64.712 E21.01133
G1 X180.6 Y65.33 E21.03189
G1 X180.599 Y154.395 E23.9942
G1 X180.59 Y155.122 E24.01839
G1 X180.539 Y156.041 E24.049
G1 X180.408 Y156.953 E24.07964
G1 X180.198 Y157.849 E24.11025
G1 X179.912 Y158.724 E24.14087
G1 X179.551 Y159.571 E24.17149
G1 X179.117 Y160.383 E24.20212
G1 X178.615 Y161.155 E24.23274
G1 X178.047 Y161.88 E24.26338
G1 X177.419 Y162.553 E24.29399
G1 X176.735 Y163.169 E24.32461
G1 X176 Y163.723 E24.35522
G1 X175.22 Y164.212 E24.38584
G1 X174.4 Y164.631 E24.41647
G1 X173.547 Y164.977 E24.44708
G1 X172.667 Y165.248 E24.47771
G1 X171.767 Y165.441 E24.50832
G1 X170.853 Y165.556 E24.53896
G1 X170.288 Y165.587 E24.55778
G1 X169.67 Y165.6 E24.57834
G1 X50.57 Y165.599 E28.53963
G1 X49.872 Y165.59 E28.56284
G1 X48.953 Y165.538 E28.59346
G1 X48.042 Y165.407 E28.62407
G1 X47.146 Y165.197 E28.65468
G1 X46.271 Y164.91 E28.68531
G1 X45.424 Y164.548 E28.71594
G1 X44.612 Y164.114 E28.74657
G1 X43.841 Y163.612 E28.77717
G1 X43.116 Y163.044 E28.8078
G1 X42.443 Y162.415 E28.83844
G1 X41.828 Y161.731 E28.86903
G1 X41.274 Y160.996 E28.89964
G1 X40.786 Y160.215 E28.93027
G1 X40.367 Y159.395 E28.9609
G1 X40.021 Y158.542 E28.99152
G1 X39.751 Y157.662 E29.02213
G1 X39.558 Y156.761 E29.05278
G1 X39.444 Y155.848 E29.08338
G1 X39.413 Y155.277 E29.1024
G1 X39.4 Y154.658 E29.12299
G1 X39.401 Y65.531 E32.08737
G1 X39.41 Y64.866 E32.10949
G1 X39.462 Y63.946 E32.14014
G1 X39.594 Y63.035 E32.17075
G1 X39.805 Y62.139 E32.20137
G1 X40.092 Y61.264 E32.232
G1 X40.455 Y60.418 E32.26262
G1 X40.889 Y59.606 E32.29324
G1 X41.392 Y58.835 E32.32386
G1 X41.961 Y58.111 E32.35449
G1 X42.589 Y57.439 E32.38508
G1 X43.274 Y56.823 E32.41572
G1 X44.01 Y56.27 E32.44634
G0 F6000 X44.394 Y56.494
G1 F1200 X45.169 Y56.031 E32.47636
G1 X45.982 Y55.638 E32.5064
G1 X46.827 Y55.318 E32.53645
G1 X47.696 Y55.075 E32.56646
G1 X48.584 Y54.909 E32.59651
G1 X49.723 Y54.813 E32.63453
G1 X50.33 Y54.8 E32.65472
G1 X169.439 Y54.801 E36.6163
G1 X170.137 Y54.811 E36.63952
G1 X171.039 Y54.864 E36.66957
G1 X171.932 Y54.996 E36.6996
G1 X172.81 Y55.207 E36.72963
G1 X173.666 Y55.495 E36.75967
G1 X174.493 Y55.857 E36.78969
G1 X175.285 Y56.292 E36.81975
G1 X176.036 Y56.794 E36.84979
G1 X176.739 Y57.361 E36.87983
G1 X177.389 Y57.988 E36.90987
G1 X177.981 Y58.67 E36.93991
G1 X178.511 Y59.401 E36.96994
G1 X178.973 Y60.177 E36.99998
G1 X179.366 Y60.99 E37.03001
G1 X179.684 Y61.835 E37.06004
G1 X179.927 Y62.705 E37.09008
G1 X180.092 Y63.593 E37.12012
G1 X180.187 Y64.723 E37.15784
G1 X180.2 Y65.33 E37.17803
G1 X180.199 Y154.39 E40.14018
G1 X180.19 Y155.117 E40.16436
G1 X180.139 Y156.019 E40.19441
G1 X180.008 Y156.913 E40.22446
G1 X179.799 Y157.791 E40.25448
G1 X179.513 Y158.648 E40.28453
G1 X179.152 Y159.476 E40.31458
G1 X178.72 Y160.268 E40.34458
G1 X178.219 Y161.02 E40.37464
G1 X177.653 Y161.724 E40.40468
G1 X177.028 Y162.375 E40.4347
G1 X176.347 Y162.969 E40.46475
G1 X175.616 Y163.5 E40.4948
G1 X174.842 Y163.964 E40.52482
G1 X174.029 Y164.358 E40.55487
G1 X173.185 Y164.678 E40.58489
G1 X172.315 Y164.923 E40.61495
G1 X171.428 Y165.089 E40.64496
G1 X170.277 Y165.187 E40.68338
G1 X169.67 Y165.2 E40.70358
G1 X50.575 Y165.199 E44.66469
G1 X49.877 Y165.19 E44.68791
G1 X48.976 Y165.139 E44.71793
G1 X48.082 Y165.007 E44.74798
G1 X47.204 Y164.798 E44.778
G1 X46.347 Y164.511 E44.80806
G1 X45.52 Y164.15 E44.83807
G1 X44.727 Y163.717 E44.86812
G1 X43.976 Y163.216 E44.89815
G1 X43.272 Y162.65 E44.92819
G1 X42.621 Y162.024 E44.95823
G1 X42.028 Y161.343 E44.98827
G1 X41.498 Y160.612 E45.0183
G1 X41.034 Y159.837 E45.04834
G1 X40.64 Y159.024 E45.07839
G1 X40.32 Y158.18 E45.10841
G1 X40.076 Y157.31 E45.13847
G1 X39.91 Y156.422 E45.16851
G1 X39.813 Y155.267 E45.20706
G1 X39.8 Y154.658 E45.22732
G1 X39.801 Y65.536 E48.19153
G1 X39.81 Y64.871 E48.21365
G1 X39.862 Y63.969 E48.2437
G1 X39.994 Y63.076 E48.27373
G1 X40.204 Y62.198 E48.30375
G1 X40.491 Y61.341 E48.33381
G1 X40.853 Y60.514 E48.36384
G1 X41.286 Y59.722 E48.39386
G1 X41.788 Y58.971 E48.42391
G1 X42.355 Y58.267 E48.45397
G1 X42.981 Y57.617 E48.48399
G1 X43.662 Y57.024 E48.51402
G1 X44.394 Y56.494 E48.54408
G1 F1500 E42.04408
;MESH:base-control-CuerpoHole.stl
G0 F6000 X50.42 Y64.335
G0 X50.6 Y154.4
;TYPE:WALL-INNER
G1 F1500 E48.54408
G1 F1200 X169.4 Y154.4 E52.49538
G1 X169.4 Y110 E53.97213
G1 X169.4 Y65.6 E55.44888
G1 X50.6 Y65.6 E59.40019
G1 X50.6 Y154.4 E62.35369
G0 F6000 X50.2 Y154.8
;TYPE:WALL-OUTER
G1 F1200 X169.8 Y154.8 E66.3316
G1 X169.8 Y110 E67.82165
G1 X169.8 Y65.2 E69.31171
G1 X50.2 Y65.2 E73.28962
G1 X50.2 Y154.8 E76.26973
G0 F6000 X50.47 Y154.53
G0 X50.7 Y154.04
G0 X50.96 Y154.04
;TYPE:SKIN
G1 F1200 X169.04 Y154.04 E80.19708
G1 X169.04 Y65.96 E83.12664
G1 X50.96 Y65.96 E87.05399
G1 X50.96 Y154.04 E89.98354
G0 F6000 X51.449 Y153.838
G1 F1200 X51.159 Y153.548 E89.99719
G0 F6000 X51.159 Y152.983
G1 F1200 X52.015 Y153.838 E90.03743
G0 F6000 X52.581 Y153.838
G1 F1200 X51.159 Y152.417 E90.10429
G0 F6000 X51.159 Y151.851
G1 F1200 X53.146 Y153.838 E90.19775
G0 F6000 X53.712 Y153.838
G1 F1200 X51.159 Y151.286 E90.31781
G0 F6000 X51.159 Y150.72
G1 F1200 X54.278 Y153.838 E90.4645
G0 F6000 X54.843 Y153.838
G1 F1200 X51.159 Y150.154 E90.63778
G0 F6000 X51.159 Y149.589
G1 F1200 X55.409 Y153.838 E90.83766
G0 F6000 X55.975 Y153.838
G1 F1200 X51.159 Y149.023 E91.06417
G0 F6000 X51.159 Y148.457
G1 F1200 X56.54 Y153.838 E91.31728
G0 F6000 X57.106 Y153.838
G1 F1200 X51.159 Y147.892 E91.59698
G0 F6000 X51.159 Y147.326
G1 F1200 X57.672 Y153.838 E91.90331
G0 F6000 X58.238 Y153.838
G1 F1200 X51.159 Y146.76 E92.23626
G0 F6000 X51.159 Y146.195
G1 F1200 X58.803 Y153.838 E92.59579
G0 F6000 X59.369 Y153.838
G1 F1200 X51.159 Y145.629 E92.98194
G0 F6000 X51.159 Y145.063
G1 F1200 X59.935 Y153.838 E93.39471
G0 F6000 X60.5 Y153.838
G1 F1200 X51.159 Y144.497 E93.83408
G0 F6000 X51.159 Y143.932
G1 F1200 X61.066 Y153.838 E94.30005
G0 F6000 X61.632 Y153.838
G1 F1200 X51.159 Y143.366 E94.79265
G0 F6000 X51.159 Y142.8
G1 F1200 X62.197 Y153.838 E95.31184
G0 F6000 X62.763 Y153.838
G1 F1200 X51.159 Y142.235 E95.85763
G0 F6000 X51.159 Y141.669
G1 F1200 X63.329 Y153.838 E96.43005
G0 F6000 X63.894 Y153.838
G1 F1200 X51.159 Y141.103 E97.02907
G0 F6000 X51.159 Y140.538
G1 F1200 X64.46 Y153.838 E97.65468
G0 F6000 X65.026 Y153.838
G1 F1200 X51.159 Y139.972 E98.30692
G0 F6000 X51.159 Y139.406
G1 F1200 X65.591 Y153.838 E98.98576
G0 F6000 X66.157 Y153.838
G1 F1200 X51.159 Y138.841 E99.69119
G0 F6000 X51.159 Y138.275
G1 F1200 X66.723 Y153.838 E100.42325
G0 F6000 X67.288 Y153.838
G1 F1200 X51.159 Y137.709 E101.18191
G0 F6000 X51.159 Y137.144
G1 F1200 X67.854 Y153.838 E101.96717
G0 F6000 X68.42 Y153.838
G1 F1200 X51.159 Y136.578 E102.77905
G0 F6000 X51.159 Y136.012
G1 F1200 X68.986 Y153.838 E103.61755
G0 F6000 X69.551 Y153.838
G1 F1200 X51.159 Y135.447 E104.48263
G0 F6000 X51.159 Y134.881
G1 F1200 X70.117 Y153.838 E105.37434
G0 F6000 X70.683 Y153.838
G1 F1200 X51.159 Y134.315 E106.29266
G0 F6000 X51.159 Y133.749
G1 F1200 X71.248 Y153.838 E107.23759
G0 F6000 X71.814 Y153.838
G1 F1200 X51.159 Y133.184 E108.20911
G0 F6000 X51.159 Y132.618
G1 F1200 X72.38 Y153.838 E109.20726
G0 F6000 X72.945 Y153.838
G1 F1200 X51.159 Y132.052 E110.232
G0 F6000 X51.159 Y131.487
G1 F1200 X73.511 Y153.838 E111.28335
G0 F6000 X74.077 Y153.838
G1 F1200 X51.159 Y130.921 E112.36132
G0 F6000 X51.159 Y130.355
G1 F1200 X74.642 Y153.838 E113.46589
G0 F6000 X75.208 Y153.838
G1 F1200 X51.159 Y129.79 E114.59705
G0 F6000 X51.159 Y129.224
G1 F1200 X75.774 Y153.838 E115.75485
G0 F6000 X76.339 Y153.838
G1 F1200 X51.159 Y128.658 E116.93924
G0 F6000 X51.159 Y128.093
G1 F1200 X76.905 Y153.838 E118.15022
G0 F6000 X77.471 Y153.838
G1 F1200 X51.159 Y127.527 E119.38784
G0 F6000 X51.159 Y126.961
G1 F1200 X78.037 Y153.838 E120.65207
G0 F6000 X78.602 Y153.838
G1 F1200 X51.159 Y126.396 E121.94288
G0 F6000 X51.159 Y125.83
G1 F1200 X79.168 Y153.838 E123.26032
G0 F6000 X79.734 Y153.838
G1 F1200 X51.159 Y125.264 E124.60437
G0 F6000 X51.159 Y124.698
G1 F1200 X80.299 Y153.838 E125.97503
G0 F6000 X80.865 Y153.838
G1 F1200 X51.159 Y124.133 E127.37229
G0 F6000 X51.159 Y123.567
G1 F1200 X81.431 Y153.838 E128.79616
G0 F6000 X81.996 Y153.838
G1 F1200 X51.159 Y123.001 E130.24664
G0 F6000 X51.159 Y122.436
G1 F1200 X82.562 Y153.838 E131.72372
G0 F6000 X83.128 Y153.838
G1 F1200 X51.159 Y121.87 E133.22742
G0 F6000 X51.159 Y121.304
G1 F1200 X83.693 Y153.838 E134.75772
G0 F6000 X84.259 Y153.838
G1 F1200 X51.159 Y120.739 E136.31462
G0 F6000 X51.159 Y120.173
G1 F1200 X84.825 Y153.838 E137.89814
G0 F6000 X85.39 Y153.838
G1 F1200 X51.159 Y119.607 E139.50826
G0 F6000 X51.159 Y119.042
G1 F1200 X85.956 Y153.838 E141.14498
G0 F6000 X86.522 Y153.838
G1 F1200 X51.159 Y118.476 E142.80833
G0 F6000 X51.159 Y117.91
G1 F1200 X87.087 Y153.838 E144.49827
G0 F6000 X87.653 Y153.838
G1 F1200 X51.159 Y117.345 E146.21481
G0 F6000 X51.159 Y116.779
G1 F1200 X88.219 Y153.838 E147.95798
G0 F6000 X88.785 Y153.838
G1 F1200 X51.159 Y116.213 E149.72777
G0 F6000 X51.159 Y115.648
G1 F1200 X89.35 Y153.838 E151.52413
G0 F6000 X89.916 Y153.838
G1 F1200 X51.159 Y115.082 E153.34712
G0 F6000 X51.159 Y114.516
G1 F1200 X90.482 Y153.838 E155.19673
G0 F6000 X91.047 Y153.838
G1 F1200 X51.159 Y113.95 E157.07294
G0 F6000 X51.159 Y113.385
G1 F1200 X91.613 Y153.838 E158.97574
G0 F6000 X92.179 Y153.838
G1 F1200 X51.159 Y112.819 E160.90518
G0 F6000 X51.159 Y112.253
G1 F1200 X92.744 Y153.838 E162.86121
G0 F6000 X93.31 Y153.838
G1 F1200 X51.159 Y111.688 E164.84384
G0 F6000 X51.159 Y111.122
G1 F1200 X93.876 Y153.838 E166.85309
G0 F6000 X94.441 Y153.838
G1 F1200 X51.159 Y110.556 E168.88894
G0 F6000 X51.159 Y109.991
G1 F1200 X95.007 Y153.838 E170.95139
G0 F6000 X95.573 Y153.838
G1 F1200 X51.159 Y109.425 E173.04047
G0 F6000 X51.159 Y108.859
G1 F1200 X96.138 Y153.838 E175.15614
G0 F6000 X96.704 Y153.838
G1 F1200 X51.159 Y108.294 E177.29842
G0 F6000 X51.159 Y107.728
G1 F1200 X97.27 Y153.838 E179.46731
G0 F6000 X97.836 Y153.838
G1 F1200 X51.159 Y107.162 E181.66283
G0 F6000 X51.159 Y106.597
G1 F1200 X98.401 Y153.838 E183.88493
G0 F6000 X98.967 Y153.838
G1 F1200 X51.159 Y106.031 E186.13365
G0 F6000 X51.159 Y105.465
G1 F1200 X99.533 Y153.838 E188.40899
G0 F6000 X100.098 Y153.838
G1 F1200 X51.159 Y104.899 E190.71093
G0 F6000 X51.159 Y104.334
G1 F1200 X100.664 Y153.838 E193.03947
G0 F6000 X101.23 Y153.838
G1 F1200 X51.159 Y103.768 E195.39463
G0 F6000 X51.159 Y103.202
G1 F1200 X101.795 Y153.838 E197.77639
G0 F6000 X102.361 Y153.838
G1 F1200 X51.159 Y102.637 E200.18475
G0 F6000 X51.159 Y102.071
G1 F1200 X102.927 Y153.838 E202.61974
G0 F6000 X103.492 Y153.838
G1 F1200 X51.159 Y101.505 E205.08132
G0 F6000 X51.159 Y100.94
G1 F1200 X104.058 Y153.838 E207.56951
G0 F6000 X104.624 Y153.838
G1 F1200 X51.159 Y100.374 E210.08431
G0 F6000 X51.159 Y99.808
G1 F1200 X105.189 Y153.838 E212.62572
G0 F6000 X105.755 Y153.838
G1 F1200 X51.159 Y99.243 E215.19372
G0 F6000 X51.159 Y98.677
G1 F1200 X106.321 Y153.838 E217.78835
G0 F6000 X106.886 Y153.838
G1 F1200 X51.159 Y98.111 E220.40958
G0 F6000 X51.159 Y97.546
G1 F1200 X107.452 Y153.838 E223.0574
G0 F6000 X108.018 Y153.838
G1 F1200 X51.159 Y96.98 E225.73185
G0 F6000 X51.159 Y96.414
G1 F1200 X108.584 Y153.838 E228.43293
G0 F6000 X109.149 Y153.838
G1 F1200 X51.159 Y95.849 E231.16057
G0 F6000 X51.159 Y95.283
G1 F1200 X109.715 Y153.838 E233.91485
G0 F6000 X110.281 Y153.839
