;FLAVOR:Marlin
;TIME:14274
;Filament used: 10.4466m
;Layer height: 0.2
;MINX:37.747
;MINY:51.5
;MINZ:0.2
;MAXX:184.747
;MAXY:168.5
;MAXZ:11
;Generated with Cura_SteamEngine 5.2.1
M82 ;absolute extrusion mode
; Ender 3 Custom Start G-code
G92 E0 ; Reset Extruder
G28 ; Home all axes
M104 S175 ; Start heating up the nozzle most of the way
M190 S60 ; Start heating the bed, wait until target temperature reached
M109 S210.0 ; Finish heating the nozzle
G1 Z2.0 F3000 ; Move Z Axis up little to prevent scratching of Heat Bed
G1 X0.1 Y20 Z0.3 F5000.0 ; Move to start position
G1 X0.1 Y200.0 Z0.3 F1500.0 E15 ; Draw the first line
G1 X0.4 Y200.0 Z0.3 F5000.0 ; Move to side a little
G1 X0.4 Y20 Z0.3 F1500.0 E30 ; Draw the second line
G92 E0 ; Reset Extruder
G1 Z2.0 F3000 ; Move Z Axis up little to prevent scratching of Heat Bed
G1 X5 Y20 Z0.3 F5000.0 ; Move over to prevent blob squish
G92 E0
G92 E0
G1 F1500 E-6.5
;LAYER_COUNT:55
;LAYER:0
M107
G0 F6000 X41.633 Y54.127 Z0.2
;TYPE:SKIRT
G1 F1500 E0
G1 F1200 X42.373 Y53.551 E0.03119
G1 X43.159 Y53.039 E0.06239
G1 X43.986 Y52.597 E0.09358
G1 X44.848 Y52.227 E0.12478
G1 X45.738 Y51.931 E0.15597
G1 X46.65 Y51.713 E0.18716
G1 X47.577 Y51.572 E0.21835
G1 X48.448 Y51.513 E0.24738
G1 X49.077 Y51.5 E0.26831
G1 X173.198 Y51.501 E4.39659
G1 X173.896 Y51.511 E4.41981
G1 X174.832 Y51.565 E4.45099
G1 X175.76 Y51.697 E4.48217
G1 X176.674 Y51.909 E4.51337
G1 X177.566 Y52.198 E4.54456
G1 X178.431 Y52.561 E4.57576
G1 X179.261 Y52.997 E4.60694
G1 X180.052 Y53.502 E4.63816
G1 X180.796 Y54.073 E4.66935
G1 X181.489 Y54.705 E4.70055
G1 X182.126 Y55.393 E4.73173
G1 X182.701 Y56.134 E4.76293
G1 X183.212 Y56.92 E4.79411
G1 X183.654 Y57.748 E4.82533
G1 X184.023 Y58.61 E4.85651
G1 X184.318 Y59.5 E4.8877
G1 X184.536 Y60.412 E4.91889
G1 X184.676 Y61.34 E4.9501
G1 X184.734 Y62.201 E4.9788
G1 X184.747 Y62.83 E4.99973
G1 X184.746 Y156.9 E8.12851
G1 X184.737 Y157.627 E8.15269
G1 X184.686 Y158.564 E8.1839
G1 X184.554 Y159.492 E8.21508
G1 X184.345 Y160.406 E8.24626
G1 X184.058 Y161.299 E8.27746
G1 X183.696 Y162.165 E8.30868
G1 X183.262 Y162.996 E8.33986
G1 X182.758 Y163.787 E8.37105
G1 X182.189 Y164.532 E8.40223
G1 X181.558 Y165.227 E8.43345
G1 X180.871 Y165.865 E8.46464
G1 X180.132 Y166.442 E8.49582
G1 X179.346 Y166.954 E8.52702
G1 X178.52 Y167.397 E8.5582
G1 X177.658 Y167.769 E8.58942
G1 X176.769 Y168.065 E8.62059
G1 X175.857 Y168.285 E8.65179
G1 X174.93 Y168.426 E8.68298
G1 X174.046 Y168.487 E8.71245
G1 X173.417 Y168.5 E8.73337
G1 X111.796 Y168.499 E10.7829
G1 X111.099 Y168.489 E10.80608
G1 X110.004 Y168.418 E10.84258
G1 X107.069 Y168.081 E10.94084
G1 X104.563 Y167.868 E11.02449
G1 X102.078 Y167.727 E11.10727
G1 X99.52 Y167.655 E11.19239
G1 X97.032 Y167.655 E11.27514
G1 X94.499 Y167.727 E11.35942
G1 X91.962 Y167.87 E11.44393
G1 X89.479 Y168.081 E11.52682
G1 X86.472 Y168.421 E11.62747
G1 X85.546 Y168.487 E11.65834
G1 X84.917 Y168.5 E11.67927
G1 X49.312 Y168.499 E12.8635
G1 X48.614 Y168.49 E12.88671
G1 X47.678 Y168.438 E12.91789
G1 X46.749 Y168.306 E12.9491
G1 X45.835 Y168.096 E12.98029
G1 X44.942 Y167.809 E13.01149
G1 X44.077 Y167.446 E13.04269
G1 X43.246 Y167.012 E13.07387
G1 X42.455 Y166.508 E13.10507
G1 X41.71 Y165.938 E13.13627
G1 X41.016 Y165.307 E13.16747
G1 X40.379 Y164.62 E13.19863
G1 X39.802 Y163.88 E13.22984
G1 X39.29 Y163.094 E13.26104
G1 X38.847 Y162.267 E13.29224
G1 X38.476 Y161.406 E13.32342
G1 X38.18 Y160.516 E13.35462
G1 X37.961 Y159.604 E13.38581
G1 X37.82 Y158.677 E13.417
G1 X37.76 Y157.788 E13.44664
G1 X37.747 Y157.158 E13.46759
G1 X37.748 Y63.025 E16.59847
G1 X37.757 Y62.36 E16.62059
G1 X37.81 Y61.424 E16.65177
G1 X37.942 Y60.495 E16.68298
G1 X38.153 Y59.581 E16.71418
G1 X38.441 Y58.689 E16.74536
G1 X38.804 Y57.824 E16.77656
G1 X39.239 Y56.993 E16.80775
G1 X39.743 Y56.203 E16.83892
G1 X40.313 Y55.458 E16.87012
G1 X40.945 Y54.764 E16.90134
G1 X41.633 Y54.127 E16.93253
G0 F6000 X42.021 Y54.323
G1 F1200 X42.757 Y53.77 E16.96314
G1 X43.538 Y53.282 E16.99377
G1 X44.358 Y52.864 E17.02439
G1 X45.212 Y52.519 E17.05502
G1 X46.092 Y52.249 E17.08564
G1 X46.992 Y52.057 E17.11624
G1 X47.906 Y51.943 E17.14688
G1 X48.459 Y51.913 E17.1653
G1 X49.077 Y51.9 E17.18586
G1 X173.192 Y51.901 E21.31394
G1 X173.89 Y51.911 E21.33716
G1 X174.809 Y51.964 E21.36778
G1 X175.72 Y52.097 E21.3984
G1 X176.616 Y52.308 E21.42901
G1 X177.49 Y52.596 E21.45962
G1 X178.337 Y52.959 E21.49027
G1 X179.148 Y53.394 E21.52088
G1 X179.918 Y53.898 E21.55149
G1 X180.642 Y54.467 E21.58211
G1 X181.314 Y55.097 E21.61275
G1 X181.929 Y55.782 E21.64337
G1 X182.482 Y56.518 E21.67399
G1 X182.969 Y57.299 E21.7046
G1 X183.386 Y58.12 E21.73523
G1 X183.731 Y58.974 E21.76586
G1 X184 Y59.854 E21.79647
G1 X184.192 Y60.755 E21.82711
G1 X184.305 Y61.668 E21.85771
G1 X184.334 Y62.212 E21.87583
G1 X184.347 Y62.83 E21.89639
G1 X184.346 Y156.895 E25.025
G1 X184.337 Y157.622 E25.04918
G1 X184.286 Y158.541 E25.0798
G1 X184.155 Y159.453 E25.11044
G1 X183.945 Y160.349 E25.14105
G1 X183.659 Y161.224 E25.17167
G1 X183.298 Y162.071 E25.20229
G1 X182.864 Y162.883 E25.23291
G1 X182.362 Y163.655 E25.26354
G1 X181.794 Y164.38 E25.29417
G1 X181.166 Y165.053 E25.32479
G1 X180.482 Y165.669 E25.35541
G1 X179.747 Y166.223 E25.38602
G1 X178.967 Y166.712 E25.41664
G1 X178.147 Y167.131 E25.44726
G1 X177.294 Y167.477 E25.47788
G1 X176.414 Y167.748 E25.50851
G1 X175.514 Y167.941 E25.53912
G1 X174.6 Y168.056 E25.56976
G1 X174.035 Y168.087 E25.58858
G1 X173.417 Y168.1 E25.60914
G1 X111.802 Y168.099 E27.65846
G1 X111.105 Y168.089 E27.68165
G1 X110.049 Y168.021 E27.71684
G1 X107.112 Y167.684 E27.81517
G1 X104.584 Y167.469 E27.89955
G1 X102.078 Y167.327 E27.98304
G1 X99.531 Y167.255 E28.06779
G1 X97.021 Y167.255 E28.15127
G1 X94.466 Y167.327 E28.23628
G1 X91.976 Y167.467 E28.31923
G1 X89.433 Y167.684 E28.40412
G1 X86.427 Y168.024 E28.50474
G1 X85.535 Y168.087 E28.53448
G1 X84.917 Y168.1 E28.55504
G1 X49.317 Y168.099 E29.7391
G1 X48.619 Y168.09 E29.76232
G1 X47.7 Y168.038 E29.79293
G1 X46.789 Y167.907 E29.82354
G1 X45.893 Y167.697 E29.85415
G1 X45.018 Y167.41 E29.88478
G1 X44.171 Y167.048 E29.91541
G1 X43.359 Y166.614 E29.94604
G1 X42.588 Y166.112 E29.97664
G1 X41.863 Y165.544 E30.00727
G1 X41.19 Y164.915 E30.03791
G1 X40.575 Y164.231 E30.0685
G1 X40.021 Y163.496 E30.09912
G1 X39.533 Y162.715 E30.12975
G1 X39.114 Y161.895 E30.16037
G1 X38.768 Y161.042 E30.19099
G1 X38.498 Y160.162 E30.2216
G1 X38.305 Y159.261 E30.25225
G1 X38.191 Y158.348 E30.28285
G1 X38.16 Y157.777 E30.30187
G1 X38.147 Y157.158 E30.32247
G1 X38.148 Y63.031 E33.45314
G1 X38.157 Y62.366 E33.47526
G1 X38.209 Y61.446 E33.50591
G1 X38.341 Y60.535 E33.53653
G1 X38.552 Y59.639 E33.56714
G1 X38.839 Y58.764 E33.59777
G1 X39.202 Y57.918 E33.62839
G1 X39.636 Y57.106 E33.65901
G1 X40.139 Y56.335 E33.68963
G1 X40.708 Y55.611 E33.72026
G1 X41.336 Y54.939 E33.75085
G1 X42.021 Y54.323 E33.78149
G0 F6000 X42.409 Y54.524
G1 F1200 X43.141 Y53.994 E33.81155
G1 X43.916 Y53.531 E33.84158
G1 X44.729 Y53.138 E33.87161
G1 X45.574 Y52.818 E33.90166
G1 X46.443 Y52.575 E33.93167
G1 X47.331 Y52.409 E33.96172
G1 X48.47 Y52.313 E33.99974
G1 X49.077 Y52.3 E34.01993
G1 X173.186 Y52.301 E38.14781
G1 X173.884 Y52.311 E38.17103
G1 X174.786 Y52.364 E38.20108
G1 X175.679 Y52.496 E38.23111
G1 X176.557 Y52.707 E38.26114
G1 X177.413 Y52.995 E38.29118
G1 X178.24 Y53.357 E38.32121
G1 X179.032 Y53.792 E38.35126
G1 X179.783 Y54.294 E38.38131
G1 X180.486 Y54.861 E38.41134
G1 X181.136 Y55.488 E38.44138
G1 X181.728 Y56.17 E38.47142
G1 X182.258 Y56.901 E38.50145
G1 X182.72 Y57.677 E38.53149
G1 X183.113 Y58.49 E38.56152
G1 X183.431 Y59.335 E38.59155
G1 X183.674 Y60.205 E38.6216
G1 X183.839 Y61.093 E38.65164
G1 X183.934 Y62.223 E38.68935
G1 X183.947 Y62.83 E38.70955
G1 X183.946 Y156.89 E41.83799
G1 X183.937 Y157.617 E41.86218
G1 X183.886 Y158.519 E41.89223
G1 X183.755 Y159.413 E41.92228
G1 X183.546 Y160.291 E41.9523
G1 X183.26 Y161.148 E41.98235
G1 X182.899 Y161.976 E42.01239
G1 X182.467 Y162.768 E42.04239
G1 X181.966 Y163.52 E42.07245
G1 X181.4 Y164.224 E42.10249
G1 X180.775 Y164.875 E42.13251
G1 X180.094 Y165.469 E42.16256
G1 X179.363 Y166 E42.19261
G1 X178.589 Y166.464 E42.22263
G1 X177.776 Y166.858 E42.25268
G1 X176.932 Y167.178 E42.2827
G1 X176.062 Y167.423 E42.31276
G1 X175.175 Y167.589 E42.34278
G1 X174.024 Y167.687 E42.3812
G1 X173.417 Y167.7 E42.40139
G1 X111.808 Y167.699 E44.45051
G1 X111.111 Y167.689 E44.4737
G1 X110.095 Y167.624 E44.50756
G1 X107.125 Y167.283 E44.60699
G1 X104.642 Y167.072 E44.68987
G1 X102.076 Y166.927 E44.77536
G1 X99.542 Y166.855 E44.85967
G1 X97.01 Y166.855 E44.94389
G1 X94.466 Y166.927 E45.02853
G1 X91.921 Y167.07 E45.11331
G1 X89.39 Y167.286 E45.1978
G1 X86.382 Y167.626 E45.29848
G1 X85.524 Y167.687 E45.32709
G1 X84.917 Y167.7 E45.34729
G1 X49.322 Y167.699 E46.53118
G1 X48.624 Y167.69 E46.5544
G1 X47.723 Y167.639 E46.58441
G1 X46.829 Y167.507 E46.61447
G1 X45.951 Y167.298 E46.64449
G1 X45.094 Y167.011 E46.67455
G1 X44.267 Y166.65 E46.70456
G1 X43.474 Y166.217 E46.73461
G1 X42.723 Y165.716 E46.76464
G1 X42.019 Y165.15 E46.79468
G1 X41.368 Y164.524 E46.82472
G1 X40.775 Y163.843 E46.85476
G1 X40.245 Y163.112 E46.88479
G1 X39.781 Y162.337 E46.91483
G1 X39.387 Y161.524 E46.94488
G1 X39.067 Y160.68 E46.9749
G1 X38.823 Y159.81 E47.00495
G1 X38.657 Y158.922 E47.035
G1 X38.56 Y157.767 E47.07355
G1 X38.547 Y157.158 E47.09381
G1 X38.548 Y63.036 E50.22432
G1 X38.557 Y62.371 E50.24644
G1 X38.609 Y61.469 E50.27649
G1 X38.741 Y60.576 E50.30652
G1 X38.951 Y59.698 E50.33654
G1 X39.238 Y58.841 E50.3666
G1 X39.6 Y58.014 E50.39663
G1 X40.033 Y57.222 E50.42665
G1 X40.535 Y56.471 E50.45669
G1 X41.102 Y55.767 E50.48676
G1 X41.728 Y55.117 E50.51677
G1 X42.409 Y54.524 E50.54681
G1 F1500 E44.04681
;MESH:tapa.controlrc.STL
G0 F6000 X86.24 Y90.384
G0 X88.717 Y93.547
;TYPE:WALL-INNER
G1 F1500 E50.54681
G1 F1200 X88.341 Y93.602 E50.55945
G1 X87.807 Y93.577 E50.57723
G1 X87.28 Y93.365 E50.59612
G1 X87.018 Y93.204 E50.60635
G1 X86.725 Y92.949 E50.61927
G1 X86.395 Y92.54 E50.63675
G1 X86.22 Y92.055 E50.6539
G1 X86.124 Y91.511 E50.67227
G1 X86.212 Y90.964 E50.6907
G1 X86.376 Y90.513 E50.70666
G1 X86.455 Y90.386 E50.71163
G1 X86.746 Y90.03 E50.72693
G1 X87.013 Y89.8 E50.73865
G1 X87.321 Y89.615 E50.7506
G1 X87.822 Y89.421 E50.76847
G1 X88.352 Y89.402 E50.7861
G1 X88.709 Y89.451 E50.79809
G1 X89.014 Y89.545 E50.80871
G1 X89.365 Y89.723 E50.82179
G1 X89.614 Y89.906 E50.83207
G1 X89.887 Y90.182 E50.84498
G1 X90.08 Y90.473 E50.8566
G1 X90.22 Y90.78 E50.86782
G1 X90.32 Y91.165 E50.88105
G1 X90.348 Y91.497 E50.89213
G1 X90.32 Y91.837 E50.90348
G1 X90.236 Y92.174 E50.91503
G1 X90.08 Y92.527 E50.92787
G1 X89.883 Y92.823 E50.93969
G1 X89.632 Y93.078 E50.95159
G1 X89.331 Y93.298 E50.96399
G1 X89.054 Y93.438 E50.97432
G1 X88.717 Y93.547 E50.9861
G0 F6000 X88.623 Y93.158
;TYPE:WALL-OUTER
G1 F1200 X88.327 Y93.199 E50.99604
G1 X87.906 Y93.181 E51.01005
G1 X87.491 Y93.023 E51.02482
G1 X87.243 Y92.873 E51.03446
G1 X87.006 Y92.663 E51.04499
G1 X86.746 Y92.339 E51.05881
G1 X86.602 Y91.937 E51.07301
G1 X86.529 Y91.504 E51.08762
G1 X86.606 Y91.052 E51.10287
G1 X86.74 Y90.679 E51.11605
G1 X86.767 Y90.636 E51.11774
G1 X87.03 Y90.312 E51.13162
G1 X87.223 Y90.142 E51.14017
G1 X87.478 Y89.983 E51.15017
G1 X87.885 Y89.823 E51.16471
G1 X88.324 Y89.801 E51.17933
G1 X88.613 Y89.839 E51.18903
G1 X88.895 Y89.929 E51.19887
G1 X89.145 Y90.057 E51.20821
G1 X89.383 Y90.236 E51.21812
G1 X89.566 Y90.425 E51.22687
G1 X89.731 Y90.669 E51.23667
G1 X89.85 Y90.933 E51.2463
G1 X89.921 Y91.201 E51.25552
G1 X89.948 Y91.497 E51.2654
G1 X89.924 Y91.783 E51.27495
G1 X89.844 Y92.081 E51.28521
G1 X89.731 Y92.331 E51.29434
G1 X89.579 Y92.558 E51.30342
G1 X89.358 Y92.785 E51.31396
G1 X89.134 Y92.95 E51.32322
G1 X88.872 Y93.081 E51.33296
G1 X88.623 Y93.158 E51.34163
G1 F1500 E44.84163
G0 F6000 X88.708 Y93.444
G0 X90.204 Y92.67
G0 X106.314 Y92.728
G0 X107.807 Y93.577
;TYPE:WALL-INNER
G1 F1500 E51.34163
G1 F1200 X107.28 Y93.365 E51.36052
G1 X107.016 Y93.203 E51.37082
G1 X106.735 Y92.959 E51.3832
G1 X106.391 Y92.532 E51.40144
G1 X106.215 Y92.039 E51.41885
G1 X106.202 Y91.976 E51.42099
G1 X106.123 Y91.5 E51.43704
G1 X106.216 Y90.959 E51.45529
G1 X106.394 Y90.462 E51.47285
G1 X106.711 Y90.067 E51.4897
G1 X107.001 Y89.805 E51.5027
G1 X107.321 Y89.615 E51.51507
G1 X107.822 Y89.421 E51.53294
G1 X108.352 Y89.402 E51.55058
G1 X108.709 Y89.451 E51.56257
G1 X109.014 Y89.545 E51.57318
G1 X109.365 Y89.723 E51.58627
G1 X109.623 Y89.914 E51.59695
G1 X109.866 Y90.161 E51.60847
G1 X110.069 Y90.454 E51.62033
G1 X110.218 Y90.775 E51.6321
G1 X110.319 Y91.154 E51.64515
G1 X110.347 Y91.464 E51.6555
G1 X110.318 Y91.853 E51.66847
G1 X110.229 Y92.201 E51.68042
G1 X110.076 Y92.534 E51.69261
G1 X109.878 Y92.825 E51.70431
G1 X109.638 Y93.073 E51.71579
G1 X109.331 Y93.298 E51.72845
G1 X109.054 Y93.438 E51.73878
G1 X108.717 Y93.547 E51.75056
G1 X108.341 Y93.602 E51.76319
G1 X107.807 Y93.577 E51.78098
G0 F6000 X108.623 Y93.158
;TYPE:WALL-OUTER
G1 F1200 X108.327 Y93.199 E51.79091
G1 X107.906 Y93.181 E51.80493
G1 X107.491 Y93.023 E51.8197
G1 X107.242 Y92.873 E51.82937
G1 X107.006 Y92.663 E51.83987
G1 X106.745 Y92.336 E51.85379
G1 X106.596 Y91.91 E51.8688
G1 X106.529 Y91.503 E51.88252
G1 X106.6 Y91.071 E51.89708
G1 X106.746 Y90.663 E51.91149
G1 X107.017 Y90.325 E51.9259
G1 X107.237 Y90.131 E51.93566
G1 X107.478 Y89.983 E51.94507
G1 X107.885 Y89.823 E51.95961
G1 X108.324 Y89.801 E51.97423
G1 X108.613 Y89.839 E51.98392
G1 X108.895 Y89.929 E51.99377
G1 X109.145 Y90.057 E52.00311
G1 X109.376 Y90.229 E52.01269
G1 X109.578 Y90.44 E52.02241
G1 X109.727 Y90.662 E52.0313
G1 X109.843 Y90.915 E52.04056
G1 X109.922 Y91.207 E52.05062
G1 X109.947 Y91.48 E52.05974
G1 X109.922 Y91.793 E52.07018
G1 X109.85 Y92.068 E52.07963
G1 X109.728 Y92.336 E52.08943
G1 X109.564 Y92.577 E52.09912
G1 X109.366 Y92.78 E52.10855
G1 X109.134 Y92.95 E52.11812
G1 X108.872 Y93.081 E52.12786
G1 X108.623 Y93.158 E52.13653
G1 F1500 E45.63653
G0 F6000 X108.708 Y93.444
G0 X108.274 Y93.78
G0 X108.274 Y115.72
G0 X107.812 Y120.077
;TYPE:WALL-INNER
G1 F1500 E52.13653
G1 F1200 X107.321 Y119.885 E52.15407
G1 X107.013 Y119.7 E52.16602
G1 X106.735 Y119.459 E52.17825
G1 X106.391 Y119.032 E52.19649
G1 X106.215 Y118.538 E52.21393
G1 X106.123 Y118.003 E52.23199
G1 X106.213 Y117.46 E52.2503
G1 X106.395 Y116.961 E52.26796
G1 X106.711 Y116.567 E52.28476
G1 X107.016 Y116.297 E52.29831
G1 X107.28 Y116.135 E52.30861
G1 X107.8 Y115.926 E52.32725
G1 X108.335 Y115.901 E52.34506
G1 X108.667 Y115.942 E52.35619
G1 X109.007 Y116.043 E52.36799
G1 X109.331 Y116.202 E52.37999
G1 X109.618 Y116.41 E52.39178
G1 X109.869 Y116.664 E52.40366
G1 X110.076 Y116.966 E52.41584
G1 X110.225 Y117.293 E52.42779
G1 X110.318 Y117.648 E52.43999
G1 X110.347 Y118.02 E52.4524
G1 X110.312 Y118.383 E52.46453
G1 X110.229 Y118.703 E52.47553
G1 X110.068 Y119.047 E52.48816
G1 X109.862 Y119.344 E52.50018
G1 X109.618 Y119.59 E52.51171
G1 X109.373 Y119.771 E52.52184
G1 X109.025 Y119.953 E52.5349
G1 X108.668 Y120.058 E52.54728
G1 X108.337 Y120.102 E52.55838
G1 X107.812 Y120.077 E52.57586
G0 F6000 X108.616 Y119.66
;TYPE:WALL-OUTER
G1 F1200 X108.324 Y119.699 E52.58566
G1 X107.889 Y119.678 E52.60015
G1 X107.5 Y119.527 E52.61403
G1 X107.241 Y119.372 E52.62407
G1 X107.006 Y119.163 E52.63453
G1 X106.746 Y118.837 E52.64839
G1 X106.599 Y118.425 E52.66294
G1 X106.529 Y118.003 E52.67717
G1 X106.6 Y117.571 E52.69173
G1 X106.746 Y117.163 E52.70614
G1 X107.017 Y116.825 E52.72055
G1 X107.242 Y116.627 E52.73052
G1 X107.475 Y116.485 E52.7396
G1 X107.9 Y116.318 E52.75479
G1 X108.335 Y116.302 E52.76926
